blockchains/ethereum/assets/0x0000000000085d4780B73119b644AE5ecd22b376/logo.svg

<svg width="250" height="250" viewBox="0 0 250 250" fill="none" xmlns="http://www.w3.org/2000/svg">
<g clip-path="url(#clip0_7_521)">
<g clip-path="url(#clip1_7_521)">
<path d="M125 250C194.036 250 250 194.036 250 125C250 55.9644 194.036 0 125 0C55.9644 0 0 55.9644 0 125C0 194.036 55.9644 250 125 250Z" fill="#1B5AFE"/>
<path fill-rule="evenodd" clip-rule="evenodd" d="M61.51 64.5996V107.19C85.03 107.19 104.1 88.1196 104.1 64.6096L61.51 64.5996Z" fill="white"/>
<path fill-rule="evenodd" clip-rule="evenodd" d="M104.1 192.519V106.779C104.1 106.419 104.1 106.059 104.11 105.699C104.12 105.339 104.13 104.979 104.15 104.619C104.17 104.259 104.19 103.899 104.22 103.549C104.25 103.189 104.28 102.839 104.32 102.489C104.36 102.139 104.4 101.779 104.44 101.429C104.48 101.079 104.53 100.729 104.59 100.379C104.64 100.029 104.7 99.6794 104.76 99.3394C104.82 98.9894 104.89 98.6494 104.96 98.3094C105.03 97.9694 105.1 97.6294 105.18 97.2894C105.26 96.9494 105.34 96.6094 105.43 96.2794C105.52 95.9494 105.61 95.6094 105.7 95.2794C105.79 94.9494 105.89 94.6194 106 94.2894C106.1 93.9594 106.21 93.6294 106.32 93.3094C106.43 92.9794 106.54 92.6594 106.66 92.3394C106.78 92.0194 106.9 91.6994 107.03 91.3794C107.16 91.0594 107.29 90.7494 107.42 90.4294C107.55 90.1094 107.69 89.7994 107.83 89.4894C107.97 89.1794 108.12 88.8694 108.26 88.5594C108.41 88.2494 108.56 87.9494 108.72 87.6394C108.88 87.3394 109.04 87.0394 109.2 86.7394C109.36 86.4394 109.53 86.1394 109.7 85.8494C109.87 85.5594 110.04 85.2594 110.22 84.9694C110.4 84.6794 110.58 84.3894 110.76 84.1094C110.94 83.8294 111.13 83.5394 111.32 83.2594C111.51 82.9794 111.7 82.6994 111.9 82.4294C112.1 82.1494 112.3 81.8794 112.5 81.6094C112.7 81.3394 112.91 81.0694 113.12 80.8094C113.33 80.5394 113.54 80.2794 113.76 80.0194C113.98 79.7594 114.19 79.4994 114.42 79.2494C114.64 78.9994 114.87 78.7394 115.09 78.4894C115.32 78.2394 115.55 77.9894 115.78 77.7494C116.01 77.5094 116.25 77.2594 116.49 77.0294C116.73 76.7894 116.97 76.5494 117.21 76.3194C117.45 76.0894 117.7 75.8594 117.95 75.6294C118.2 75.3994 118.45 75.1794 118.71 74.9594C118.97 74.7394 119.22 74.5194 119.48 74.3094C119.74 74.0894 120 73.8794 120.27 73.6694C120.54 73.4594 120.8 73.2494 121.08 73.0494C121.35 72.8494 121.62 72.6494 121.9 72.4494C122.18 72.2494 122.45 72.0594 122.73 71.8694C123.01 71.6794 123.29 71.4894 123.58 71.3094C123.86 71.1294 124.15 70.9494 124.44 70.7694C124.73 70.5894 125.02 70.4194 125.32 70.2494C125.61 70.0794 125.91 69.9094 126.21 69.7494C126.51 69.5894 126.81 69.4294 127.11 69.2694C127.41 69.1094 127.72 68.9594 128.03 68.8094C128.34 68.6594 128.65 68.5194 128.96 68.3794C129.27 68.2394 129.58 68.0994 129.9 67.9694C130.22 67.8394 130.53 67.7094 130.85 67.5794C131.17 67.4494 131.49 67.3294 131.81 67.2094C132.13 67.0894 132.46 66.9794 132.78 66.8694C133.1 66.7594 133.43 66.6494 133.76 66.5494C134.09 66.4494 134.42 66.3494 134.75 66.2494C135.08 66.1494 135.42 66.0594 135.75 65.9794C136.09 65.8894 136.42 65.8094 136.76 65.7294C137.1 65.6494 137.44 65.5794 137.78 65.5094C138.12 65.4394 138.47 65.3694 138.81 65.3094C139.15 65.2494 139.5 65.1894 139.85 65.1394C140.2 65.0894 140.55 65.0394 140.9 64.9894C141.25 64.9394 141.6 64.8994 141.96 64.8694C142.31 64.8294 142.67 64.7994 143.02 64.7694C143.38 64.7394 143.73 64.7194 144.09 64.6994C144.45 64.6794 144.81 64.6694 145.17 64.6594C145.53 64.6494 145.89 64.6494 146.25 64.6494H188.46V106.829H146.25V192.569L104.1 192.519Z" fill="white"/>
</g>
</g>
<defs>
<clipPath id="clip0_7_521">
<rect width="250" height="250" fill="white"/>
</clipPath>
<clipPath id="clip1_7_521">
<rect width="250" height="250" fill="white"/>
</clipPath>
</defs>
</svg>

<svg fill="none" height="250" viewBox="0 0 250 250" width="250" xmlns="http://www.w3.org/2000/svg" xmlns:xlink="http://www.w3.org/1999/xlink"><clipPath id="a"><path d="m0 0h250v250h-250z"/></clipPath><clipPath id="b"><path d="m0 0h250v250h-250z"/></clipPath><g clip-path="url(#a)"><g clip-path="url(#b)"><path d="m125 250c69.036 0 125-55.964 125-125 0-69.0356-55.964-125-125-125-69.0356 0-125 55.9644-125 125 0 69.036 55.9644 125 125 125z" fill="#1b5afe"/><g clip-rule="evenodd" fill="#fff" fill-rule="evenodd"><path d="m61.51 64.5996v42.5904c23.52 0 42.59-19.0704 42.59-42.5804z"/><path d="m104.1 192.519v-85.74c0-.36 0-.72.01-1.08s.02-.72.04-1.08.04-.72.07-1.07c.03-.36.06-.71.1-1.06s.08-.71.12-1.06.09-.7.15-1.05c.05-.35.11-.6996.17-1.0396.06-.35.13-.69.2-1.03s.14-.68.22-1.02.16-.68.25-1.01.18-.67.27-1 .19-.66.3-.99c.1-.33.21-.66.32-.98.11-.33.22-.65.34-.97s.24-.64.37-.96.26-.63.39-.95.27-.63.41-.94.29-.62.43-.93c.15-.31.3-.61.46-.92.16-.3.32-.6.48-.9s.33-.6.5-.89.34-.59.52-.88.36-.58.54-.86.37-.57.56-.85.38-.56.58-.83c.2-.28.4-.55.6-.82s.41-.54.62-.8c.21-.27.42-.53.64-.79s.43-.52.66-.77c.22-.25.45-.51.67-.76.23-.25.46-.5.69-.74s.47-.49.71-.72c.24-.24.48-.48.72-.71s.49-.46.74-.69.5-.45.76-.67.51-.44.77-.65c.26-.22.52-.43.79-.64s.53-.42.81-.62c.27-.2.54-.4.82-.6s.55-.39.83-.58.56-.38.85-.56c.28-.18.57-.36.86-.54s.58-.35.88-.52c.29-.17.59-.34.89-.5s.6-.32.9-.48.61-.31.92-.46.62-.29.93-.43.62-.28.94-.41.63-.26.95-.39.64-.25.96-.37.65-.23.97-.34.65-.22.98-.32l.99-.3c.33-.1.67-.19 1-.27.34-.09.67-.17 1.01-.25s.68-.15 1.02-.22.69-.14 1.03-.2.69-.12 1.04-.17l1.05-.15c.35-.05.7-.09 1.06-.12.35-.04.71-.07 1.06-.1.36-.03.71-.05 1.07-.07s.72-.03 1.08-.04.72-.01 1.08-.01h42.21v42.1796h-42.21v85.74z"/></g></g></g></svg>
